X: 7
T:Blue Angel
T:Blue Velvet
D:Buttons & Bow
M:6/8
L:1/8
Q:120
K:D
|:e| f2 d d^c=c| Bgg Aff| Gee Fdd| cBA bag|
f2 d d^c=c|Bgg Aff| Gee Fdd| cBc d2 :|
|:e| fdB ~B3|fdB Bcd|cAF ~F3|fgf edc|
fdB ~B3| fdg fdB| ~c3 ~f3|edc B2 :|
